packages/icons/src/svg/core/download.svg

<svg xmlns="http://www.w3.org/2000/svg" viewBox="0 0 16 16">
  <g>
    <path fill-rule="evenodd" d="M1.0001,10.9997 L1.0001,14.9997 L15.0001,14.9997 L15.0001,10.9997 L16.0001,10.9997 L16.0001,14.9997 C16.0001,15.5127 15.6141,15.9357 15.1171,15.9927 L15.0001,15.9997 L1.0001,15.9997 C0.4481,15.9997 0.0001,15.5527 0.0001,14.9997 L0.0001,10.9997 L1.0001,10.9997 Z M8.0001,-0.0003 C8.5521,-0.0003 9.0001,0.4477 9.0001,0.9997 L9.0001,8.5837 L9.7931,7.7927 C10.1831,7.4017 10.8161,7.4017 11.2071,7.7927 C11.5981,8.1837 11.5981,8.8167 11.2071,9.2067 L8.7071,11.7067 C8.5571,11.8567 8.3711,11.9497 8.1761,11.9837 L8.0591,11.9987 L7.9411,11.9987 C7.7441,11.9867 7.5501,11.9177 7.3871,11.7907 L7.2931,11.7067 L4.7931,9.2067 C4.4021,8.8167 4.4021,8.1837 4.7931,7.7927 C5.1531,7.4327 5.7211,7.4047 6.1131,7.7097 L6.2071,7.7927 L7.0001,8.5847 L7.0001,0.9997 C7.0001,0.4477 7.4481,-0.0003 8.0001,-0.0003 L8.0001,-0.0003 Z"/>
  </g>
</svg>

<svg xmlns="http://www.w3.org/2000/svg" viewBox="0 0 16 16"><path fill-rule="evenodd" d="M1 11v4h14v-4h1v4a1 1 0 01-.883.993L15 16H1a1 1 0 01-1-1v-4h1zM8 0a1 1 0 011 1v7.584l.793-.791a.999.999 0 111.414 1.414l-2.5 2.5a.99.99 0 01-.53.277l-.118.015h-.118a.998.998 0 01-.554-.208l-.094-.084-2.5-2.5a.999.999 0 011.32-1.497l.094.083.793.792V1a1 1 0 011-1z"/></svg>
